Educa/src/img/icons/cheaper.svg

<svg width="45" height="45" viewBox="0 0 45 45" fill="none" xmlns="http://www.w3.org/2000/svg">
<path d="M43.8852 25.9773L26.4276 43.4576C25.3976 44.4858 24.0453 45.0001 22.6933 45.0001C21.3416 45.0001 19.9907 44.4865 18.9617 43.4593L1.29777 25.9876C0.115021 24.8066 -0.234824 23.0546 0.400666 21.5179C1.03719 19.9798 2.5248 18.9859 4.19095 18.9859H10.0171V13.8879C10.0171 12.917 10.8044 12.1297 11.7753 12.1297C12.7462 12.1297 13.5331 12.917 13.5331 13.8879V20.7437C13.5331 21.7146 12.7462 22.5015 11.7753 22.5015H4.19095C3.84968 22.5015 3.70515 22.7274 3.64953 22.8623C3.58189 23.0254 3.54928 23.2671 3.77587 23.4937L21.4402 40.9654C22.134 41.6586 23.2536 41.6586 23.942 40.9712L41.3975 23.493C41.6238 23.2664 41.5908 23.0247 41.5232 22.8616C41.4675 22.7274 41.323 22.5015 40.9817 22.5015H33.7493C32.7784 22.5015 31.9915 21.7146 31.9915 20.7437V13.8875C31.9915 12.9166 32.7784 12.1297 33.7493 12.1297C34.7202 12.1297 35.5071 12.9166 35.5071 13.8875V18.9855H40.9817C42.6465 18.9855 44.1338 19.9784 44.771 21.5151C45.4072 23.0498 45.0597 24.8014 43.8852 25.9773ZM11.7753 3.51609C12.7462 3.51609 13.5331 2.72885 13.5331 1.75793C13.5331 0.787018 12.7462 0.00012207 11.7753 0.00012207C10.8044 0.00012207 10.0171 0.787018 10.0171 1.75793C10.0171 2.72885 10.8044 3.51609 11.7753 3.51609ZM11.7753 9.66878C12.7462 9.66878 13.5331 8.88154 13.5331 7.91062C13.5331 6.94005 12.7462 6.15281 11.7753 6.15281C10.8044 6.15281 10.0171 6.94005 10.0171 7.91062C10.0171 8.88154 10.8044 9.66878 11.7753 9.66878ZM33.7493 3.51609C34.7202 3.51609 35.5071 2.72885 35.5071 1.75793C35.5071 0.787018 34.7202 0.00012207 33.7493 0.00012207C32.7784 0.00012207 31.9915 0.787018 31.9915 1.75793C31.9915 2.72885 32.7784 3.51609 33.7493 3.51609ZM33.7493 9.66878C34.7202 9.66878 35.5071 8.88154 35.5071 7.91062C35.5071 6.94005 34.7202 6.15281 33.7493 6.15281C32.7784 6.15281 31.9915 6.94005 31.9915 7.91062C31.9915 8.88154 32.7784 9.66878 33.7493 9.66878ZM23.6968 26.369H21.079C20.6601 26.369 20.2097 26.1284 20.2097 25.6C20.2097 24.6291 19.4225 23.8422 18.4519 23.8422C17.481 23.8422 16.6937 24.6291 16.6937 25.6C16.6937 27.949 18.535 29.7992 20.9145 29.8809V30.8518C20.9145 31.8227 21.7014 32.6096 22.6723 32.6096C23.6433 32.6096 24.4305 31.8227 24.4305 30.8518V29.8338C26.8485 29.4974 28.6513 27.5174 28.6513 25.0507V23.9819C28.6513 22.6536 28.1312 21.4125 27.187 20.4879C26.2563 19.5757 25.0166 19.0738 23.6968 19.0738H22.0859C21.3118 19.0738 20.6574 18.3892 20.6574 17.5793V16.9383C20.6574 16.1514 21.2716 15.5578 22.0859 15.5578H23.6093C24.057 15.5578 24.5201 15.8575 24.5201 16.3591C24.5201 17.33 25.3073 18.1169 26.2779 18.1169C27.2488 18.1169 28.0361 17.33 28.0361 16.3591C28.0361 14.2521 26.4801 12.4943 24.4305 12.1177V10.9871C24.4305 10.0162 23.6436 9.22932 22.6727 9.22932C21.7018 9.22932 20.9145 10.0162 20.9145 10.9871V12.1781C20.0446 12.3834 19.2477 12.817 18.6012 13.4494C17.6598 14.3706 17.1414 15.6096 17.1414 16.9383V17.5793C17.1414 20.342 19.3596 22.5894 22.0859 22.5894H23.6968C24.5036 22.5894 25.1353 23.2012 25.1353 23.9819V25.0507C25.1353 25.9162 24.4116 26.369 23.6968 26.369Z" fill="white"/>
</svg>

<svg xmlns="http://www.w3.org/2000/svg" width="45" height="45" fill="none" xmlns:v="https://vecta.io/nano"><path d="M43.885 25.977l-17.458 17.48A5.27 5.27 0 0 1 22.693 45c-1.352 0-2.703-.514-3.732-1.541L1.298 25.988c-1.183-1.181-1.533-2.933-.897-4.47a4.09 4.09 0 0 1 3.79-2.532h5.826v-5.098a1.76 1.76 0 0 1 1.758-1.758 1.76 1.76 0 0 1 1.758 1.758v6.856a1.76 1.76 0 0 1-1.758 1.758H4.191c-.341 0-.486.226-.541.361-.068.163-.1.405.126.631L21.44 40.965a1.77 1.77 0 0 0 2.502.006l17.456-17.478c.226-.227.193-.468.126-.631-.056-.134-.2-.36-.542-.36h-7.232a1.76 1.76 0 0 1-1.758-1.758v-6.856a1.76 1.76 0 0 1 1.758-1.758 1.76 1.76 0 0 1 1.758 1.758v5.098h5.475a4.09 4.09 0 0 1 3.789 2.53c.636 1.535.289 3.286-.886 4.462zM11.775 3.516a1.76 1.76 0 0 0 1.758-1.758A1.76 1.76 0 0 0 11.775 0a1.76 1.76 0 0 0-1.758 1.758 1.76 1.76 0 0 0 1.758 1.758zm0 6.153a1.76 1.76 0 0 0 1.758-1.758 1.76 1.76 0 0 0-1.758-1.758 1.76 1.76 0 0 0-1.758 1.758 1.76 1.76 0 0 0 1.758 1.758zm21.974-6.153a1.76 1.76 0 0 0 1.758-1.758A1.76 1.76 0 0 0 33.749 0a1.76 1.76 0 0 0-1.758 1.758 1.76 1.76 0 0 0 1.758 1.758zm0 6.153a1.76 1.76 0 0 0 1.758-1.758 1.76 1.76 0 0 0-1.758-1.758 1.76 1.76 0 0 0-1.758 1.758 1.76 1.76 0 0 0 1.758 1.758zm-10.052 16.7h-2.618c-.419 0-.869-.241-.869-.769a1.76 1.76 0 0 0-1.758-1.758 1.76 1.76 0 0 0-1.758 1.758c0 2.349 1.841 4.199 4.221 4.281v.971a1.76 1.76 0 0 0 1.758 1.758 1.76 1.76 0 0 0 1.758-1.758v-1.018c2.418-.336 4.221-2.316 4.221-4.783v-1.069a4.85 4.85 0 0 0-1.464-3.494c-.931-.912-2.17-1.414-3.49-1.414h-1.611c-.774 0-1.428-.685-1.428-1.494v-.641c0-.787.614-1.381 1.428-1.381h1.523c.448 0 .911.3.911.801a1.76 1.76 0 0 0 1.758 1.758 1.76 1.76 0 0 0 1.758-1.758c0-2.107-1.556-3.865-3.606-4.241v-1.131a1.76 1.76 0 0 0-1.758-1.758 1.76 1.76 0 0 0-1.758 1.758v1.191a4.91 4.91 0 0 0-2.313 1.271 4.84 4.84 0 0 0-1.46 3.489v.641c0 2.763 2.218 5.01 4.944 5.01h1.611c.807 0 1.439.612 1.439 1.392v1.069c0 .866-.724 1.318-1.439 1.318z" fill="#fff"/></svg>
